X:1
T: Barn Elms
N:
C:
S:
A:
O:
R:
M:3/2
K:Em
I:speed 150
%W: A1
% voice 1 (1 lines, 26 notes)
K:Em
M:3/2
L:1/16
B4 e4|e4 f4 |g4 f2 |e2 ^d2 e2 |f4 B4 |A4 G4 |F4 G4 |E4 G2 |A2 B4 |c4 B4 |B4 c2 |B2 A8 |B8 |
%W: A2
% voice 1 (1 lines, 26 notes)
B4 e4|e4 f4 |g4 f2 |e2 ^d2 e2 |f4 B4 |A4 G4 |F4 G4 |E4 G2 |A2 B4 |c4 B4 |B4 c2 |B2 A8 |B8 |
%W: B1
% voice 1 (1 lines, 28 notes)
B4 d4|d4 e4 |d2 e2 d2 |c2 B4 |G4G4 |d4 g4 |d4 e4 |d4d4 |c2 B2 c4 |B4 A4 |A2 B2 c4 |d4 B4 |G4
%W:
% voice 1 (1 lines, 23 notes)
d4 |g4g4 |f4 e4 |B4 ^c4 |f4f4 |e4 ^d4 |B4 e4 |d4d4 |c4B4 |B4B4 |A2 G2 F8 |E8 |
%W: B2
% voice 1 (1 lines, 28 notes)
B4 d4|d4 e4 |d2 e2 d2 |c2 B4 |G4G4 |d4 g4 |d4 e4 |d4d4 |c2 B2 c4 |B4 A4 |A2 B2 c4 |d4 B4 |G4
%W:
% voice 1 (1 lines, 23 notes)
d4 |g4g4 |f4 e4 |B4 ^c4 |f4f4 |e4 ^d4 |B4 e4 |d4d4 |c4B4 |B4B4 |A2 G2 F8 |E8 ||
